src/lib/packages/icons/src/assets/line/shopping-basket-times.svg

<svg width="24" height="24" viewBox="0 0 24 24" fill="none" xmlns="http://www.w3.org/2000/svg">
<path d="M21.75 9C21.75 7.483 20.517 6.25 19 6.25H16.8459L14.684 2.616C14.472 2.262 14.013 2.142 13.656 2.355C13.301 2.567 13.183 3.027 13.395 3.383L15.1 6.24899H8.94897L10.6801 3.387C10.8951 3.033 10.781 2.572 10.427 2.357C10.07 2.142 9.60997 2.256 9.39697 2.61L7.19604 6.248H5C3.483 6.248 2.25 7.481 2.25 8.998C2.25 10.087 2.89101 11.022 3.81201 11.467L4.50195 18.371C4.72895 20.643 5.94903 21.748 8.23303 21.748H15.803C18.087 21.748 19.3081 20.644 19.5341 18.371L20.226 11.446C21.126 10.995 21.75 10.073 21.75 9ZM5 7.75H19C19.689 7.75 20.25 8.311 20.25 9C20.25 9.689 19.689 10.25 19 10.25H5C4.311 10.25 3.75 9.689 3.75 9C3.75 8.311 4.311 7.75 5 7.75ZM18.043 18.224C17.914 19.507 17.507 20.25 15.804 20.25H8.23401C6.52201 20.25 6.127 19.538 5.995 18.224L5.34802 11.75H18.691L18.043 18.224ZM14.03 14.53L13.0601 15.5L14.03 16.47C14.323 16.763 14.323 17.238 14.03 17.531C13.884 17.677 13.692 17.751 13.5 17.751C13.308 17.751 13.116 17.678 12.97 17.531L12 16.561L11.03 17.531C10.884 17.677 10.692 17.751 10.5 17.751C10.308 17.751 10.116 17.678 9.96997 17.531C9.67697 17.238 9.67697 16.763 9.96997 16.47L10.9399 15.5L9.96997 14.53C9.67697 14.237 9.67697 13.762 9.96997 13.469C10.263 13.176 10.738 13.176 11.031 13.469L12.001 14.439L12.9709 13.469C13.2639 13.176 13.739 13.176 14.032 13.469C14.325 13.762 14.323 14.237 14.03 14.53Z" fill="currentColor"/>
</svg>

<svg xmlns="http://www.w3.org/2000/svg" width="24" height="24" fill="none"><path fill="currentColor" d="M21.75 9A2.752 2.752 0 0 0 19 6.25h-2.154l-2.162-3.634a.75.75 0 0 0-1.289.767L15.1 6.249H8.949l1.731-2.862a.75.75 0 0 0-1.283-.777L7.196 6.248H5a2.752 2.752 0 0 0-2.75 2.75c0 1.089.641 2.024 1.562 2.469l.69 6.904c.227 2.272 1.447 3.377 3.731 3.377h7.57c2.284 0 3.505-1.104 3.731-3.377l.692-6.925A2.738 2.738 0 0 0 21.75 9ZM5 7.75h14c.689 0 1.25.561 1.25 1.25s-.561 1.25-1.25 1.25H5c-.689 0-1.25-.561-1.25-1.25S4.311 7.75 5 7.75Zm13.043 10.474c-.129 1.283-.536 2.026-2.239 2.026h-7.57c-1.712 0-2.107-.712-2.239-2.026l-.647-6.474h13.343l-.648 6.474ZM14.03 14.53l-.97.97.97.97a.75.75 0 0 1-1.06 1.061l-.97-.97-.97.97a.748.748 0 0 1-1.06 0 .75.75 0 0 1 0-1.061l.97-.97-.97-.97a.75.75 0 1 1 1.061-1.061l.97.97.97-.97a.75.75 0 1 1 1.059 1.061Z"/></svg>
